src/standard/office/neighborhood.svg

<svg xmlns="http://www.w3.org/2000/svg" viewBox="0 0 36 36">
  <path d="M21.62 18a3.62 3.62 0 0 0-7.24 0 3.62 3.62 0 0 0 7.24 0Zm-6 0a2.38 2.38 0 0 1 4.75 0 2.38 2.38 0 0 1-4.75 0ZM26.66 4.38H9.34a1 1 0 0 0-1 1v7.32a1 1 0 0 0 1 1h6.51a2.78 2.78 0 0 0 2.15-1 2.78 2.78 0 0 0 2.15 1h6.51a1 1 0 0 0 1-1V5.34a1 1 0 0 0-1-.96Zm-10.81 8h-3.23V8.62h4.76v2.23a1.54 1.54 0 0 1-1.53 1.53Zm4.3 0a1.54 1.54 0 0 1-1.53-1.53V8.62h4.76v3.76Zm6.23 0h-1.76V8a.62.62 0 0 0-.62-.62H12a.62.62 0 0 0-.62.62v4.38H9.62V5.62h16.76Zm.28 10h-6.51a2.78 2.78 0 0 0-2.15 1 2.78 2.78 0 0 0-2.15-1H9.34a1 1 0 0 0-1 1v7.32a1 1 0 0 0 1 1h17.32a1 1 0 0 0 1-1v-7.36a1 1 0 0 0-1-.96Zm-6.51 1.24h3.23v3.76h-4.76v-2.23a1.54 1.54 0 0 1 1.53-1.53Zm-4.3 0a1.54 1.54 0 0 1 1.53 1.53v2.23h-4.76v-3.76Zm10.53 6.76H9.62v-6.76h1.76V28a.62.62 0 0 0 .62.62h12a.62.62 0 0 0 .62-.62v-4.38h1.76Z" fill="#231f20"/>
</svg>

<svg xmlns="http://www.w3.org/2000/svg" viewBox="0 0 36 36"><defs><style>.cls-1{fill:#231f20;}</style></defs><g id="Layer_4" data-name="Layer 4"><path class="cls-1" d="M21.62,18a3.62,3.62,0,0,0-7.24,0A3.62,3.62,0,0,0,21.62,18Zm-6,0a2.38,2.38,0,0,1,4.75,0A2.38,2.38,0,0,1,15.62,18Z"/><path class="cls-1" d="M26.66,4.38H9.34a1,1,0,0,0-1,1v7.32a1,1,0,0,0,1,1h6.51a2.78,2.78,0,0,0,2.15-1,2.78,2.78,0,0,0,2.15,1h6.51a1,1,0,0,0,1-1V5.34A1,1,0,0,0,26.66,4.38Zm-10.81,8H12.62V8.62h4.76v2.23A1.54,1.54,0,0,1,15.85,12.38Zm4.3,0a1.54,1.54,0,0,1-1.53-1.53V8.62h4.76v3.76Zm6.23,0H24.62V8A.62.62,0,0,0,24,7.38H12a.62.62,0,0,0-.62.62v4.38H9.62V5.62H26.38Z"/><path class="cls-1" d="M26.66,22.38H20.15a2.78,2.78,0,0,0-2.15,1,2.78,2.78,0,0,0-2.15-1H9.34a1,1,0,0,0-1,1v7.32a1,1,0,0,0,1,1H26.66a1,1,0,0,0,1-1V23.34A1,1,0,0,0,26.66,22.38Zm-6.51,1.24h3.23v3.76H18.62V25.15A1.54,1.54,0,0,1,20.15,23.62Zm-4.3,0a1.54,1.54,0,0,1,1.53,1.53v2.23H12.62V23.62Zm10.53,6.76H9.62V23.62h1.76V28a.62.62,0,0,0,.62.62H24a.62.62,0,0,0,.62-.62V23.62h1.76Z"/></g></svg>
